svg/fluentui-system-icons/ic_fluent_system_24_regular.svg

<svg width="24" height="24" viewBox="0 0 24 24" fill="none" xmlns="http://www.w3.org/2000/svg">
<path d="M4.75 5H19.25C20.7688 5 22 6.23121 22 7.75V16.25C22 17.7688 20.7688 19 19.25 19H4.75C3.23121 19 2 17.7688 2 16.25V7.75C2 6.23122 3.23122 5 4.75 5ZM4.75 6.5C4.05964 6.5 3.5 7.05964 3.5 7.75V16.25C3.5 16.9404 4.05963 17.5 4.75 17.5H19.25C19.9404 17.5 20.5 16.9404 20.5 16.25V7.75C20.5 7.05963 19.9404 6.5 19.25 6.5H4.75Z" fill="#212121"/>
</svg>

<svg xmlns="http://www.w3.org/2000/svg" width="24" height="24"><path d="M4.75 5h14.5A2.75 2.75 0 0 1 22 7.75v8.5A2.75 2.75 0 0 1 19.25 19H4.75A2.75 2.75 0 0 1 2 16.25v-8.5A2.75 2.75 0 0 1 4.75 5Zm0 1.5c-.69 0-1.25.56-1.25 1.25v8.5c0 .69.56 1.25 1.25 1.25h14.5c.69 0 1.25-.56 1.25-1.25v-8.5c0-.69-.56-1.25-1.25-1.25H4.75Z"/></svg>
